src/images/4.svg

<svg fill="none" height="29" viewBox="0 0 26 29" width="26" xmlns="http://www.w3.org/2000/svg"><path d="m15.9997 4.00008-.6667-3.333332h-14.999992v28.333352h3.333332v-11.6667h9.33336l.6666 3.3333h11.6667v-16.66662z" fill="#fff"/></svg>

<svg width="26" height="29" viewBox="0 0 26 29" fill="none" xmlns="http://www.w3.org/2000/svg">
<path d="M15.9997 4.00008L15.333 0.666748H0.333008V29.0001H3.66634V17.3334H12.9997L13.6663 20.6667H25.333V4.00008H15.9997Z" fill="white"/>
</svg>
